!!!!SEGMENT: pl-kk--kk-i-6--025-005_sabino-ippolito--missa-brevis-agnus-dei.krn
!!!cenid: 16xx:988
!!!COM: Sabino, Ippolito
!!!COM-rismid: pe30011894
!!!CDT: ~1550-1593
!!!CNT: Italian
!!!OPR: Missa brevis
!!!OTL: Agnus Dei
!!!OMV: 005
!!!PDT:
!!!AGN: Sacred; Mass
!!!SMS-siglum: PL-Kk
!!!SMS-shelfmark: Kk.I.6
!!!SMS-shelfwork: 025-005 M
!!!SMS-variant:
!!!SMS-altvar:
!!!NIFC-rismid: 1001135985
!!!URL-scan: http://repozytorium.nifc.pl/skany/pl-kk-nut--i-6
!!!ONB-nifc: UWAGA: C (skan 0023-0027, s. 42-51), T (skan 0126-0131, s. 56-66), B (skan 0237-0241, s. 56-65) Części Mszy: 1 Kyrie, 2. Et in terra, 3. Patrem, 4. Sanctus, 5. Agnus Dei
!!!key:
**kern	**text	**kern	**text	**kern	**text
*part3	*part3	*part2	*part2	*part1	*part1
*staff3	*staff3	*staff2	*staff2	*staff1	*staff1
*group1	*	*group1	*	*group1	*
*Iempty	*	*Itenor	*	*Ivox	*
*I"Baſsus.	*	*I"Tenor.	*	*I"Cantus.	*
*I'B	*	*I'T	*	*I'S	*
*clefF4	*	*clefC4	*	*clefC4	*
*k[b-]	*	*k[b-]	*	*k[b-]	*
*F:	*	*F:	*	*F:	*
*M2/1	*	*M2/1	*	*M2/1	*
*met(C|)	*	*met(C|)	*	*met(C|)	*
=1-	=1-	=1-	=1-	=1-	=1-
0rD	.	1G	A-	00r	.
.	.	1A	-Gnus	.	.
=2-	=2-	=2-	=2-	=2-	=2-
2rBB	.	2B-\	De-	.	.
2C/	A-	1c	-i	.	.
1D	-Gnus	.	.	.	.
!	!	!LO:N:acc=#	!	!	!
!	!	!LO:TX:b:t=P:problem:# below	!	!	!
.	.	2Bn\	qui	.	.
=3-	=3-	=3-	=3-	=3-	=3-
2E\	De-	2.c\	tol-	1rA	.
1F	-i	.	.	.	.
.	.	4B-y\	.	.	.
.	.	2A/	.	2rF	.
!	!	!	!	!LO:TX:t=P:problem:kreska pseudotaktowa	!
2E\	qui	2G/	-lis	2G/	A-
=4-	=4-	=4-	=4-	=4-	=4-
2.F\	tol-	0F	pec-	1.A	-Gnus
4E\	.	.	.	.	.
1D	.	.	.	.	.
!	!	!	!	!LO:TX:t=P:problem:kreska pseudotaktowa	!
.	.	.	.	2B-\	De-
=5-	=5-	=5-	=5-	=5-	=5-
0C	-lis	2G/	-ca-	1c	-i
.	.	2A/	-ta	.	.
.	.	0G	mun-	2c\	qui
.	.	.	.	2.c\	tol-
=6-	=6-	=6-	=6-	=6-	=6-
2rBB	.	.	.	.	.
!	!	!	!	!LO:TX:b:t=P:problem:# below	!
!	!	!	!	!LO:N:acc=#	!
.	.	.	.	8Bn\L	.
.	.	.	.	8A\J	.
!	!	!	!	!LO:TX:t=P:problem:kreska pseudotaktowa	!
2GG/	A-	.	.	2B\	.
!LO:SIC:v:t=custos B	!	!LO:SIC:v:t=custos F	!	!	!
!	!	!LO:TX:t=P:problem:cezura na 1. linii:global	!	!	!
!	!	!LO:LB:g=original	!	!	!
1AA	-gnus	2E,</	-di	2c\	-lis
.	.	2F/	A-	2A/	qui
!LO:LB:g=original	!	!	!	!	!
=7-	=7-	=7-	=7-	=7-	=7-
!LO:N:acc=#	!	!	!	!	!
!LO:TX:b:t=P:problem:# below	!	!	!	!	!
2BBn/	De-	2D/	-gnus	2.G/	tol-
1C	-i	2E/	De-	.	.
.	.	.	.	4F/	.
.	.	2C/	-i	2E/	.
!LO:N:acc=#	!	!	!	!	!
!LO:TX:b:t=P:problem:# below	!	!	!	!LO:TX:t=P:problem:kreska pseudotaktowa	!
2BBn/	qui	2D/	qui	2D/	-lis
=8-	=8-	=8-	=8-	=8-	=8-
!	!	!	!	!LO:SIC:v:t=custos D	!
2.C/	tol-	2.E/	tol-	0C	pec-
4BB-y/	.	4D/	.	.	.
1AA	.	2E/	.	.	.
!	!	!LO:TX:b:t=P:problem:# below	!	!	!
.	.	2F#X/	.	.	.
!	!	!	!	!LO:LB:g=original	!
=9-	=9-	=9-	=9-	=9-	=9-
1.GG	-lis	0.G	-lis	2D/	-ca-
!	!	!	!	!LO:TX:t=P:problem:kreska pseudotaktowa	!
.	.	.	.	2E-X/	-ta
.	.	.	.	1D	mun-
2GG/	pec-	.	.	.	.
=10-	=10-	=10-	=10-	=10-	=10-
2C/	-ca-	.	.	2C/	-di
2C/	-ta	.	.	2Eny/	qui
1FF	mun-	2c\	pec-	1.F	tol-
.	.	2.c\	-ca-	.	.
=11-	=11-	=11-	=11-	=11-	=11-
2C/	-di	.	.	.	.
.	.	8B-\L	.	.	.
.	.	8A\J	.	.	.
!	!	!	!	!LO:TX:t=P:problem:kreska pseudotaktowa	!
2C/	pec-	4G/	.	2E/	-lis
.	.	4A/	.	.	.
2BB-/	-ca-	2B-\	.	1F	pec-
!	!	!LO:SIC:v:t=custos c	!	!	!
2D/	-ta	2A/	-ta	.	.
!	!	!LO:LB:g=original	!	!	!
=12-	=12-	=12-	=12-	=12-	=12-
0C	mun-	0c	Mun-	2G/	-ca-
!	!	!	!	!LO:TX:t=P:problem:kreska pseudotaktowa	!
.	.	.	.	2A/	-ta
.	.	.	.	1G	mun-
=13-	=13-	=13-	=13-	=13-	=13-
!LO:SIC:v:t=custos FF	!	!	!	!	!
1FF	-di	0A	-di	2F/	-di
.	.	.	.	1C	Mi-
!LO:LB:g=original	!	!	!	!	!
1.FF	Mi-	.	.	.	.
!	!	!	!	!LO:TX:t=P:problem:kreska pseudotaktowa	!
.	.	.	.	2C/	-ſe-
=14-	=14-	=14-	=14-	=14-	=14-
.	.	2rF	.	2.F/	-re-
2FF/	-se-	1Fny	Mi-	.	.
!	!	!	!	!LO:TX:t=P:problem:kreska pseudotaktowa	!
.	.	.	.	4E/	-re
2.BB-/	-re-	.	.	2D/	no-
.	.	2F/	-se-	2D/	-bis
4AA/	.	.	.	.	.
=15-	=15-	=15-	=15-	=15-	=15-
*	*	*	*	*	*ij
2GG/	.	2.B-\	-re-	2.G/	Mi-
2GG/	-re	.	.	.	.
.	.	4A/	.	4F/	.
!	!	!	!	!LO:PB:g=original	!
2.C/	No-	2G/	.	4E/	-ſe-
.	.	.	.	4D/	.
*	*	*	*	*lig	*
.	.	2G/	-re	1E/	-re-
4BB-/	.	.	.	.	.
=16-	=16-	=16-	=16-	=16-	=16-
4AA/	.	1A	no-	.	.
4GG/	.	.	.	.	.
2FF/	.	.	.	1F	.
1C	-bis	2G,</	-bis	.	.
*	*	*	*	*Xlig	*
.	.	1G/	Mi-	4E/	.
!	!	!	!	!LO:TX:t=P:problem:kreska pseudotaktowa	!
.	.	.	.	4D/	.
=17-	=17-	=17-	=17-	=17-	=17-
1.C	Mi-	.	.	2.E/	.
.	.	2G/	-ſe-	.	.
.	.	.	.	4F/	-re
.	.	2.c\	-re-	1G	no-
2C/	-se-	.	.	.	.
.	.	4B-\	.	.	.
=18-	=18-	=18-	=18-	=18-	=18-
2.F\	-re-	2A/	.	2F/	-bis
*	*	*	*	*	*Xij
!	!	!LO:SIC:v:t=custos d	!	!	!
.	.	2A/	-re	1A	Mi-
4E\	.	.	.	.	.
!	!	!LO:LB:g=original	!	!	!
2D/	.	1.d	no-	.	.
!	!	!	!	!LO:TX:t=P:problem:kreska pseudotaktowa	!
2D/	-re	.	.	2A/	-se-
=19-	=19-	=19-	=19-	=19-	=19-
!	!	!	!	!LO:N:acc=#	!
1G	No-	.	.	2Bn\	-re-
.	.	1G	.	2B\	-re
!LO:SIC:v:t=custos GG	!	!	!	!	!
1C	-bis	.	.	1c	no-
.	.	1c\	.	.	.
!LO:LB:g=original	!	!	!	!	!
=20-	=20-	=20-	=20-	=20-	=20-
2rBB	.	.	.	1G	-bis
*	*ij	*	*	*	*
!	!	!LO:N:acc=#	!	!	!
!	!	!LO:TX:b:t=P:problem:# below	!	!	!
1GG	Mi-	4Bn\	.	.	.
.	.	4A/	.	.	.
!	!	!LO:N:acc=#	!	!	!
!	!	!LO:TX:b:t=P:problem:# below	!	!	!
.	.	1Bn	.	2rF	.
*	*	*	*	*	*ij
2GG/	-se-	.	.	1G/	Mi-
=21-	=21-	=21-	=21-	=21-	=21-
2.C/	-re-	2c\	-bis	.	.
*	*	*	*ij	*	*
!	!	!	!	!LO:TX:t=P:problem:kreska pseudotaktowa	!
.	.	2C/	Mi-	2G/	-se-
4BB-/	.	.	.	.	.
2.AA/	.	1E	-ſe-	2.c\	-re-
4GG/	.	.	.	4B-y\	.
=22-	=22-	=22-	=22-	=22-	=22-
2FF/	.	2F/	-re-	2A/	.
2C/	-re	2E/	-re	2G/	-re
1FF	No-	1A	no-	1F	no-
=23-	=23-	=23-	=23-	=23-	=23-
0Cl;;	-bis	0Gl;;	-bis	0El;;	-bis
*	*Xij	*	*Xij	*	*Xij
!LO:LB:g=original	!	!LO:LB:g=original	!	!LO:LB:g=original	!
=24||-	=24||-	=24||-	=24||-	=24||-	=24||-
*M2/1	*	*M2/1	*	*M2/1	*
*met(C|)	*	*met(C|)	*	*met(C|)	*
00r	.	0rA	.	1rA	.
!	!	!	!	!LO:TX:t=P:problem:kreska pseudotaktowa	!
.	.	.	.	1G	A-
=25-	=25-	=25-	=25-	=25-	=25-
.	.	1rA	.	2A/	-Gnus
.	.	.	.	2B-\	De-
.	.	1C	A-	2c\	-i
!	!	!	!	!LO:TX:t=P:problem:kreska pseudotaktowa	!
.	.	.	.	2A/	qui
=26-	=26-	=26-	=26-	=26-	=26-
1GG	A-	2D/	-Gnus	1B-	tol-
.	.	2E/	De-	.	.
2AA/	-Gnus	2F/	-i	2A/	-lis
!	!	!	!	!LO:TX:t=P:problem:kreska pseudotaktowa	!
2BB-/	De-	2D/	qui	2G/	pe-
=27-	=27-	=27-	=27-	=27-	=27-
2C/	-i	1E	tol-	2G/	-ca-
2AA/	qui	.	.	1A	-ta
1BB-	tol-	2D/	-lis	.	.
!	!	!	!	!LO:TX:t=P:problem:kreska pseudotaktowa	!
.	.	2D/	pec-	2G/	mun-
=28-	=28-	=28-	=28-	=28-	=28-
!	!	!	!	!LO:TX:t=P:problem:cezura na 1. linii	!
2AA/	-lis	2.E/	-ca-	2A,</	-di
2AA/	pec-	.	.	2A/	pec-
.	.	4F/	.	.	.
!	!	!	!	!LO:TX:b:t=P:problem:# below	!
!	!	!	!	!LO:N:acc=#	!
2GG/	-ca-	2G/	.	2Bn\	-ca-
2FF/	-ta	2A/	-ta	2c\	-ta
=29-	=29-	=29-	=29-	=29-	=29-
!	!	!LO:SIC:v:t=custos F	!	!	!
1C	mun-	1G	mun-	1c	mun-
!	!	!LO:LB:g=original	!	!	!
1FF	-di	2F,</	-di	1A	-di
.	.	2F/	A-	.	.
=30-	=30-	=30-	=30-	=30-	=30-
!	!	!	!	!LO:TX:a:t=3	!
2rBB	.	2G/	-gnus	0r	.
!LO:SIC:v:t=custos D	!	!	!	!	!
2C/	A-	2A/	De-	.	.
!LO:LB:g=original	!	!	!	!	!
2D/	-gnus	2B-y\	-i	.	.
2E\	De-	2G/	qui	.	.
=31-	=31-	=31-	=31-	=31-	=31-
!	!	!	!	!LO:SIC:v:t=custos G	!
2F\	-i	1A	tol-	1r	.
2D/	qui	.	.	.	.
!	!	!	!	!LO:LB:g=original	!
1E-X	tol-	1G	-lis	2r	.
!	!	!	!	!LO:TX:t=P:problem:kreska pseudotaktowa	!
.	.	.	.	2G/	A-
=32-	=32-	=32-	=32-	=32-	=32-
2D/	-lis	1F	pec-	2A/	-gnus
2D/	pec-	.	.	2B-y\	De-
2C/	-ca-	2G/	-ca-	2c\	-i
!	!	!	!	!LO:TX:t=P:problem:kreska pseudotaktowa	!
2F\	-ta	2A/	-ta	2c\	qui
=33-	=33-	=33-	=33-	=33-	=33-
1BB-	mun-	1B-	mun-	1d	tol-
2F\	-di	2A,</	-di	1c	-lis
2FF/	pec-	2F/	pec-	.	.
=34-	=34-	=34-	=34-	=34-	=34-
4FF/	-ca-	1F	-ca-	1A	pec-
4GG/	.	.	.	.	.
4AA/	.	.	.	.	.
4BB-/	.	.	.	.	.
2C/	.	1E	-ta	2G/	-ca-
2C/	-ta	.	.	1G/	-ta
=35-	=35-	=35-	=35-	=35-	=35-
!LO:SIC:v:l:s=mun-	!	!	!	!	!
!LO:SIC:v:t=custos GG	!	!LO:SIC:v:t=custos D	!	!	!
1AA	mu-	1C	mun-	.	.
!	!	!	!	!LO:TX:t=P:problem:kreska pseudotaktowa	!
.	.	.	.	2F/	mun-
!LO:PB:g=original	!	!LO:PB:g=original	!	!	!
1GG	-di	2D/	-di	0G	-di
.	.	1D/	do-	.	.
=36-	=36-	=36-	=36-	=36-	=36-
1.GG	do-	.	.	.	.
.	.	2D/	-na	.	.
.	.	1G	No-	2rF	.
2GG/	-na	.	.	1G/	do-
=37-	=37-	=37-	=37-	=37-	=37-
1C	No-	1E	-bis	.	.
!	!	!	!	!LO:TX:t=P:problem:kreska pseudotaktowa	!
.	.	.	.	2G/	-na
1AA	-bis	2.A/	Pa-	1c	No-
.	.	4G/	.	.	.
=38-	=38-	=38-	=38-	=38-	=38-
!	!	!	!	!LO:TX:t=P:problem:kreska pseudotaktowa	!
2.D/	pa-	1F	.	1A	-bis
4C/	.	.	.	.	.
2.BB-/	.	2F/	-cem	2.d\	pa-
.	.	2.F/	pa-	.	.
!	!	!	!	!LO:SIC:v:t=custos B-	!
4AA/	.	.	.	4c\	.
!	!	!	!	!LO:LB:g=original	!
=39-	=39-	=39-	=39-	=39-	=39-
1GG	.	.	.	1B-	.
.	.	8E/L	.	.	.
.	.	8D/J	.	.	.
.	.	2E/	.	.	.
!	!	!	!	!LO:TX:t=P:problem:cezura na 1. linii	!
0FF	-cem	2F/	-cem	2A,</	-cem
.	.	1F/	do-	1A\	do-
=40-	=40-	=40-	=40-	=40-	=40-
.	.	.	.	.	.
.	.	2F/	-na	2A\	-na
00r	.	2D/	No-	2.d\	No-
.	.	2D/	-bis	.	.
.	.	.	.	4c\	.
=41-	=41-	=41-	=41-	=41-	=41-
!	!	!	!	!LO:N:acc=#	!
!	!	!	!	!LO:TX:b:t=P:problem:# below	!
.	.	1G	pa-	2Bn\	.
.	.	.	.	2B\	-bis
.	.	2C/	-cem	1c	pa-
.	.	2.c\	pa-	.	.
=42-	=42-	=42-	=42-	=42-	=42-
!	!	!	!	!LO:TX:t=P:problem:kreska pseudotaktowa	!
.	.	.	.	1G	-cem
!	!	!LO:TX:b:t=P:problem:# below	!	!	!
!	!	!LO:N:acc=#	!	!	!
.	.	8Bn\L	.	.	.
.	.	8A\J	.	.	.
!	!	!LO:SIC:v:t=custos c	!	!	!
.	.	2B\	.	.	.
!	!	!LO:LB:g=original	!	!	!
0rD	.	2c\	-cem	2rF	.
*	*	*	*	*	*ij
.	.	1G/	do-	1C/	do-
=43-	=43-	=43-	=43-	=43-	=43-
.	.	.	.	.	.
!	!	!	!	!LO:TX:t=P:problem:kreska pseudotaktowa	!
.	.	2G/	-na	2C/	-na
2rBB	.	1.A	No-	1F	No-
*	*ij	*	*	*	*
1FF/	do-	.	.	.	.
=44-	=44-	=44-	=44-	=44-	=44-
.	.	.	.	2F/	-bis
2FF/	-na	2A/	-bis	1F	pa-
1BB-	No-	2.B-y\	pa-	.	.
!	!	!	!	!LO:TX:t=P:problem:kreska pseudotaktowa	!
.	.	.	.	2F/	-cem
.	.	4c\	.	.	.
=45-	=45-	=45-	=45-	=45-	=45-
1GG	-bis	2d\	.	1B-y	do-
.	.	2G/	-cem	.	.
2.C/	pa-	2r	.	1G	-na
*	*	*	*ij	*	*
.	.	1c\	No-	.	.
4BB-/	.	.	.	.	.
=46-	=46-	=46-	=46-	=46-	=46-
2.AA/	.	.	.	2.c\	No-
.	.	2A/	-bis	.	.
4GG/	.	.	.	4B-\	-bis
0FF	.	0c	pa-	0A	pa-
=47-	=47-	=47-	=47-	=47-	=47-
.	.	.	.	.	.
0Cl;;	-cem	0cl;;	-cem	0Gl;;	-cem
*	*Xij	*	*Xij	*	*Xij
==	==	==	==	==	==
*-	*-	*-	*-	*-	*-
!!!system-decoration: [g1]
!!!RDF**kern: > = above
!!!RDF**kern: < = below
!!!RDF**kern: l = terminal long
!!!AIN: 1 empty 1 tenor 1 vox
!!!ENC: Andrzej Kubiczek
!!!END: 2021-03-23
!!!ENC: Kamil Watkowski
!!!END: 2021-03-07
